X:1
T:Stratton Mountain Tragedy
M:3/4
L:1/8
K:F
 F4 E3/2 F/2| G3/2 F/2 F4| A4 C3/2 E/2| G3/2 G/2 F3 F| F3/2 F/2 F3 F|\
 G3/2 F/2 F3 B| A/2 A3/2(2D3.99999962500005/5.99999925000009D3.99999962500005/5.99999925000009D3.99999962500005/5.99999925000009 _E3.99999962500005/5.99999925000009 G3/2 F/2|\
 B,4 z D| D3/2 C/2 C2 G2| G3/2 F/2 F3 F| GF A3 G|(2F3.99999962500005/5.99999925000009F3.99999962500005/5.99999925000009G3.99999962500005/5.99999925000009 A3.99999962500005/5.99999925000009 B4|\
